assets/icons/icon_angle_right.svg

<svg width="48" height="48" viewBox="0 0 48 48" fill="none" xmlns="http://www.w3.org/2000/svg">
<g clip-path="url(#clip0_2188_3051)">
<path d="M17.1597 40C16.7797 40 16.3897 39.85 16.0997 39.56C15.5097 38.97 15.5097 38.02 16.0997 37.44L29.1897 24.35C29.3797 24.15 29.3797 23.84 29.1897 23.64L16.0997 10.55C15.5097 9.95997 15.5097 9.00997 16.0997 8.42997C16.6897 7.84997 17.6397 7.83997 18.2197 8.42997L31.3097 21.52C32.6697 22.88 32.6697 25.1 31.3097 26.47L18.2197 39.56C17.9297 39.85 17.5397 40 17.1597 40Z" fill="black"/>
</g>
<defs>
<clipPath id="clip0_2188_3051">
<rect width="48" height="48" fill="white"/>
</clipPath>
</defs>
</svg>

<?xml version="1.0" encoding="UTF-8"?>
<svg xmlns="http://www.w3.org/2000/svg" viewBox="0 0 48 48">
  <defs>
    <style>
      .cls-1 {
        fill: none;
        opacity: .2;
      }
    </style>
  </defs>
  <g id="guid">
    <g>
      <rect class="cls-1" width="48" height="48"/>
      <rect class="cls-1" x="4" y="4" width="40" height="40"/>
    </g>
  </g>
  <g id="Layer_2" data-name="Layer 2">
    <path d="M17.16,40c-.38,0-.77-.15-1.06-.44-.59-.59-.59-1.54,0-2.12l13.09-13.09c.19-.2.19-.51,0-.71l-13.09-13.09c-.59-.59-.59-1.54,0-2.12s1.54-.59,2.12,0l13.09,13.09c1.36,1.36,1.36,3.58,0,4.95l-13.09,13.09c-.29.29-.68.44-1.06.44Z"/>
  </g>
</svg>
